X: 434
T: Beautiful Mary McKeon
N:"Gaily"
N:Irish title: maire alain ni .miceoin
B:O'Neill's 434
Z:Transcribed by henrik.norbeck@mailbox.swipnet.se
M:6/8
L:1/8
K:A
(c/B/) | Ace edB | AAB cEA | .G(G/E/D) C2 D | E=cB A2 (^c/B/) |
Ace edB | .A(A/G/A/B/) cEA | G(G/E/D) C2 (C/D/) | EAA A2 ||
(c/B/) | A>cd eef | =gec d2 (e/d/) | ccA dcB | AGE E2 (c/d/) |
eec dBG | AAB cEA | .G(G/E/D) C2 C/D/ | EAA A2 ||


